svgs/duotone/list.svg

<svg xmlns="http://www.w3.org/2000/svg" viewBox="0 0 512 512"><!--! Font Awesome Pro 6.6.0 by @fontawesome - https://fontawesome.com License - https://fontawesome.com/license (Commercial License) Copyright 2024 Fonticons, Inc. --><defs><style>.fa-secondary{opacity:.4}</style></defs><path class="fa-secondary" d="M160 96c0-17.7 14.3-32 32-32l288 0c17.7 0 32 14.3 32 32s-14.3 32-32 32l-288 0c-17.7 0-32-14.3-32-32zm0 160c0-17.7 14.3-32 32-32l288 0c17.7 0 32 14.3 32 32s-14.3 32-32 32l-288 0c-17.7 0-32-14.3-32-32zm0 160c0-17.7 14.3-32 32-32l288 0c17.7 0 32 14.3 32 32s-14.3 32-32 32l-288 0c-17.7 0-32-14.3-32-32z"/><path class="fa-primary" d="M16 72c0-13.3 10.7-24 24-24l48 0c13.3 0 24 10.7 24 24l0 48c0 13.3-10.7 24-24 24l-48 0c-13.3 0-24-10.7-24-24l0-48zm0 160c0-13.3 10.7-24 24-24l48 0c13.3 0 24 10.7 24 24l0 48c0 13.3-10.7 24-24 24l-48 0c-13.3 0-24-10.7-24-24l0-48zM40 368l48 0c13.3 0 24 10.7 24 24l0 48c0 13.3-10.7 24-24 24l-48 0c-13.3 0-24-10.7-24-24l0-48c0-13.3 10.7-24 24-24z"/></svg>

<svg xmlns="http://www.w3.org/2000/svg" viewBox="0 0 512 512"><!--! Font Awesome Pro 6.4.0 by @fontawesome - https://fontawesome.com License - https://fontawesome.com/license (Commercial License) Copyright 2023 Fonticons, Inc. --><defs><style>.fa-secondary{opacity:.4}</style></defs><path class="fa-primary" d="M16 72c0-13.3 10.7-24 24-24H88c13.3 0 24 10.7 24 24v48c0 13.3-10.7 24-24 24H40c-13.3 0-24-10.7-24-24V72zm0 160c0-13.3 10.7-24 24-24H88c13.3 0 24 10.7 24 24v48c0 13.3-10.7 24-24 24H40c-13.3 0-24-10.7-24-24V232zM40 368H88c13.3 0 24 10.7 24 24v48c0 13.3-10.7 24-24 24H40c-13.3 0-24-10.7-24-24V392c0-13.3 10.7-24 24-24z"/><path class="fa-secondary" d="M160 96c0-17.7 14.3-32 32-32H480c17.7 0 32 14.3 32 32s-14.3 32-32 32H192c-17.7 0-32-14.3-32-32zm0 160c0-17.7 14.3-32 32-32H480c17.7 0 32 14.3 32 32s-14.3 32-32 32H192c-17.7 0-32-14.3-32-32zm32 128H480c17.7 0 32 14.3 32 32s-14.3 32-32 32H192c-17.7 0-32-14.3-32-32s14.3-32 32-32z"/></svg>
